X: 19
T:Morrison's Jig
R:Jig
M:6/8
L:1/8
Q:3/8=120
K:Edor
|~E3 BEB|EBE AFD|~E3 BEB|dcB AFD|
~E3 BEB|EBE AFD|~G3 FGA|BAG FED:|
Bee fee|aee fed|Bee fee|fag fed|
Bee fee|aee fed|gfe d2A|BAG FED|
Bee fee|aee fed|Bee fee|faf def|
~g3 gfe|def g2d|edc d2A|BAG FED|]
